X:1
T:5.5 Etouffe block
M:4/4
L:1/4
K:C
%%score (RH) (LH)
V:RH clef=treble
V:LH clef=bass
[V:RH] [c.e.g.] [f.a.c'.] [G.B.d.] [c.e.g.] | [c.e.g.] [f.a.c'.] [G.B.d.] [c.e.g.] | [c.e.g.] [f.a.c'.] [G.B.d.] [c.e.g.] | [c.e.g.] [f.a.c'.] [G.B.d.] [c.e.g.] |
[V:LH] "C" C,. "F" F,. "G" G,,. "C" C,. | C,. F,. G,,. C,. | C,. F,. G,,. C,. | C,. F,. G,,. C,. |
